icons/astro/astro-plain.svg

<?xml version="1.0" encoding="UTF-8"?>
<svg xmlns="http://www.w3.org/2000/svg" xmlns:xlink="http://www.w3.org/1999/xlink" width="128px" height="128px"
  viewBox="0 0 128 128" version="1.1">
  <path fill-rule="evenodd" fill="#000000" fill-opacity="1"
    d="M 81.503906 9.464844 C 82.476562 10.671875 82.972656 12.300781 83.960938 15.554688 L 105.617188 86.691406 C 97.609375 82.535156 88.90625 79.542969 79.726562 77.925781 L 65.628906 30.28125 C 65.398438 29.5 64.683594 28.964844 63.871094 28.964844 C 63.054688 28.964844 62.335938 29.503906 62.109375 30.285156 L 48.179688 77.902344 C 38.957031 79.511719 30.214844 82.511719 22.175781 86.679688 L 43.933594 15.539062 C 44.929688 12.289062 45.425781 10.664062 46.398438 9.457031 C 47.257812 8.394531 48.371094 7.570312 49.640625 7.058594 C 51.074219 6.484375 52.777344 6.484375 56.175781 6.484375 L 71.71875 6.484375 C 75.121094 6.484375 76.824219 6.484375 78.261719 7.0625 C 79.527344 7.570312 80.644531 8.398438 81.503906 9.464844 Z M 81.503906 9.464844 M 84.09375 90.074219 C 80.523438 93.128906 73.398438 95.210938 65.191406 95.210938 C 55.121094 95.210938 46.675781 92.074219 44.4375 87.855469 C 43.636719 90.273438 43.457031 93.039062 43.457031 94.808594 C 43.457031 94.808594 42.929688 103.484375 48.964844 109.519531 C 48.964844 106.386719 51.503906 103.847656 54.636719 103.847656 C 60.007812 103.847656 60.003906 108.53125 60 112.335938 C 60 112.449219 60 112.5625 60 112.671875 C 60 118.445312 63.527344 123.390625 68.542969 125.476562 C 67.792969 123.9375 67.371094 122.203125 67.371094 120.378906 C 67.371094 114.871094 70.601562 112.824219 74.359375 110.441406 C 77.347656 108.546875 80.667969 106.441406 82.953125 102.21875 C 84.148438 100.011719 84.828125 97.488281 84.828125 94.808594 C 84.828125 93.15625 84.570312 91.566406 84.09375 90.074219 Z M 84.09375 90.074219 " />
</svg>

<svg xmlns="http://www.w3.org/2000/svg" viewBox="0 0 128 128"><path fill-rule="evenodd" d="M81.504 9.465c.973 1.207 1.469 2.836 2.457 6.09l21.656 71.136a90.079 90.079 0 0 0-25.89-8.765L65.629 30.28a1.833 1.833 0 0 0-3.52.004L48.18 77.902a90.104 90.104 0 0 0-26.003 8.778l21.758-71.14c.996-3.25 1.492-4.876 2.464-6.083a8.023 8.023 0 0 1 3.243-2.398c1.433-.575 3.136-.575 6.535-.575H71.72c3.402 0 5.105 0 6.543.579a7.988 7.988 0 0 1 3.242 2.402Zm2.59 80.61c-3.57 3.054-10.696 5.136-18.903 5.136-10.07 0-18.515-3.137-20.754-7.356-.8 2.418-.98 5.184-.98 6.954 0 0-.527 8.675 5.508 14.71a5.671 5.671 0 0 1 5.672-5.671c5.37 0 5.367 4.683 5.363 8.488v.336c0 5.773 3.527 10.719 8.543 12.805a11.62 11.62 0 0 1-1.172-5.098c0-5.508 3.23-7.555 6.988-9.938 2.989-1.894 6.309-4 8.594-8.222a15.513 15.513 0 0 0 1.875-7.41 15.55 15.55 0 0 0-.734-4.735Zm0 0"/></svg>
